X: 14
T: Boyne Hunt, The
C: Magdalene Stirling
Z: Jeff Rowan
S: https://thesession.org/tunes/142#setting50457
R: reel
M: 4/4
L: 1/8
K: Dmaj
|:(3AAA FA DAFA|DAFA BE~E2|(3AAA FA DAFA|(3AAA de fd (3ddd:|
f (3aaa f a3f|gfga be (3eee|f (3aaa f afdB|ABde fdd2|
f (3aaa f a3f|gfga be (3eee|fgfe dedB|ABde fdd2||

%-------------------- TUNE SEPARATOR --------------------%

